X:1
T:Mrs. Barclay's  (Kincardine O'Neil)
T:Mrs. Barclay's  (Kincardine O'Neil)
T:Alexander Walker
C:Alexander Walker
L:1/8
M:2/2
K:Bb
V:1 treble 
V:1
 F | BdcB (GB) FD | EGFD GCCA | BdcB (GB)FD | EGFe dBB :| e | dfba gfed | cBed cCCe | dfba bfdB | %9
{A} GcFA BB,B,e | dfba gfed | cded cCCE | DFEG FBGE | DFBc dBB || %14

